X:93
T:Colleen Malone
C:Pete Goble
N:TablEdit Crosspicking arrangement by Rick Kauffmann
R:bluegrass
L:1/8
Q:1/4=170
M:4/4
K:C
z4 E2 F2 | "C"uGve vcuG vevA BvA | "F"ca fc B2 A2 | "C"Ge cG E2 D2 | "Am"uCvA vEuC vD2 E2 | 
"F"FvA cF vAc FvA | "C"uEve vcuG vevc uGvE | "G"D2 Bd BA GE | D2 DD E2 F2 | "C"Ge cG eA BA | 
"F"ca fc B2 A2 | "C"Ge cG E2 D2 | "Am"CA EC D2 E2 | "F"FA cF Ac FA | "G"DB GuD vBvG uD2 | 
"C"C2 cvA GuE vDvE | C4 B2 c2 | "G"dve gud ved BA | G2 GG A2 B2 | "F"ca fc B2 A2 | 
"C"G2 GG A2 B2 | "F"ca fc B2 A2 | "C"Ge cG F2 E2 | "G"D2 dc BA GE | D2 DD B2 c2 | 
db gud B2 A2 | G2 GG A2 B2 | "F"ca fc B2 A2 | "C"G2 GG A2 B2 | "F"ca fc B2 A2 | 
"G"db gd c2 B2 | "C"ce gc ec Ge | [c8E8G,8] | 


